X: 1
M: 2/4
K: C
L: 1/8
CC CG, | CD EE | EE DC | DE CC |
w:E-ra u-ma vez um cu-co que nӹo gos-ta-va de cou-ves
CC CG, | CD EE | EE DC | DE CC |
w:E-ra u-ma vez um cu-co que nӹo gos-ta-va de cou-ves
z2 z C |: G/2G/2G EC | GG EC :|
w:e'o cu-co nӹo quis co-mer as cou-ves
CC CG, | CD E2 | EE DC | DE C2 |]
w:e'es-ta-va sem-pre'a di-zer: cou-ves nӹo hei-de'eu co-mer
